X:1
T:Title
%%score { ( 1 3 5 ) | ( 2 4 6 ) }
L:1/8
Q:1/4=81
M:6/8
K:G
V:1 treble nm="Grand Piano"
V:3 treble 
V:5 treble 
V:2 bass 
V:4 bass 
V:6 bass 
V:1
 B>BB [EA]<[EG][G,CE] | B,3- [B,G]3 | %2
w: Wm.~J.~Kirkpatrick * * * * *||
[M:27/32] z/4 z/4 z/4 z/4 z/4 z/4 z/4 z/4 z/4 z/4 z/4 z/4 z/ [GB]/4-[GB]/4-[GB]/4-[GB]/4-[GB]/4-[GB]/4-[GB]/-<[GB]/ z/4 z/ | %3
w: |
[M:3/4] z6 | (9:8:10[DGB]3/2[DGB]3/4 [DGB]-[DGB]/8[DGB]-[DGB]/8 [CDA]-[CDA]/8[B,DG]-[B,DG]/8 | %5
w: ||
 (3:2:2[CEA]3/2[CEG]3/2 z [B,D]2- [B,D]/4 z/4 z/ | %6
w: |
 (9:8:10[CFA]3/2[CFA]3/4 [CFA]-[CFA]/8[CFA]-[CFA]/8 [B,DG]-[B,DG]/8[DFA]-[DFA]/8 | %7
w: |
 (3:2:2[DGB]2 [CDA] [B,G]-[B,D-F-GA-]/<[DFA]/- [DFA]-[DFA]/4 z/4 z/ | %8
w: |
 (9:8:9[Bd]3/2d3/4 d-d/8[ce]3/8d3/2-d3/8B-B/8 | d3- [G-B-d]/<[GB]/- [GB]3/4 z/4 z | %10
w: ||
 (9:8:9[B,G]3/2[B,G]3/4 [B,G]-[B,G]/8A3/8G3/2-G3/8E-E/8 | %11
w: |
 G4- G-G/4 z/4 z/[Q:1/4=80][Q:1/4=78][Q:1/4=77][Q:1/4=76][Q:1/4=75][Q:1/4=73][Q:1/4=72][Q:1/4=71][Q:1/4=70][Q:1/4=68][Q:1/4=67][Q:1/4=66][Q:1/4=65][Q:1/4=63][Q:1/4=62] |] %12
w: |
V:2
 [G,D]>[G,D][G,D] [C,C]<[C,C]C, | z3 .D,3 | %2
[M:27/32] [D,CD]/-<[D,CD]/[D,CD]/-<[D,CD]/[D,B,D]/-<[D,B,D]/[D,D]/D/4-D/4-D/4-D/4-D/4-D/4-D/-<D/ z/4 z/ | %3
[M:3/4] G,,4- G,,-G,,/4 z/4 z/ | (9:8:10G,3/2G,3/4 G,-G,/8G,-G,/8 G,-G,/8G,-G,/8 | %5
 z2 E,-E,/4 z/4 z/ z2 | (9:8:10D,3/2D,3/4 D,-D,/8D,-D,/8 D,-D,/8D,-D,/8 | z2 G,-G,/4 z/4 z/ z2 | %8
 (9:8:9G,,3/2-[G,,B]3/4[K:treble] B-B/8G,3/8-[G,B]3/2-[G,B]3/8G-G/8 | z2 D,-D,/4 z/4 z/ z2 | %10
 (9:8:9[G,,D,]3/2[G,,D,]3/4 [G,,D,]-[G,,D,]/8[C,E,C]3/8[C,E,C]3/2-[C,E,C]3/8[C,E,C]-[C,E,C]/8 | %11
 z2 E,-E,/4 z/4 z/ z2 |] %12
V:3
 x6 | [G,D]3 z3 |[M:27/32] A/-<A/A/-<A/G/-<G/[GB]/ z/4 z/4 z/4 z/4 z/4 z/4 z/ D/4-D/-<D/ | %3
[M:3/4] [B,DG]4- [B,DG]-[B,DG]/4 z/4 z/ | x6 | z2 [G,CE]-[G,CE]/4 z/4 z/ z2 | x6 | z2 .D2 z2 | x6 | %9
 B4 z2 | x6 | (3B,/B,/- B,2 C-C/4 z/4 z/ z2 |] %12
V:4
 x6 | G,,6 | %2
[M:27/32] z/4 z/4 z/4 z/4 z/4 z/4 z/4 z/4 z/4 z/4 z/4 z/4 z/ D,/4-D,/4-D,/4-D,/4-D,/-<D,/D,/4-D,/-<D,/- | %3
[M:3/4] D,3/4 z/4 z z2 z2 | x6 | (3:2:2C,3/2C,3/2 z G,2- G,/4 z/4 z/ | x6 | %7
 (3:2:2G,2 G, z D,2- D,/4 z/4 z/ | x2[K:treble] x4 | (3:2:2G,,3/2B,,3/2 z G,2- G,/4 z/4 z/ | x6 | %11
 z2 z D,2- D,/4 z/4 z/ |] %12
V:5
 x6 | x6 | %2
[M:27/32] z/4 z/4 z/4 z/4 z/4 z/4 z/4 z/4 z/4 z/4 z/4 z/4 z/4 z/4 z/4 z/4 z/4 z/4 z/4 z/4 z/ [CA]/4-[CA]/-<[CA]/- | %3
[M:3/4] [CA]3/4 z/4 z z2 z2 | x6 | x6 | x6 | x6 | x6 | x6 | x6 | z2 z B,2- B,/4 z/4 z/ |] %12
V:6
 x6 | x6 |[M:27/32] x27/4 |[M:3/4] x6 | x6 | x6 | x6 | x6 | x2[K:treble] x4 | x6 | x6 | %11
 (3[G,,-D,]/[G,,D,]/- [G,,-D,]2 G,,3- G,,/4 z/4 z/ |] %12

